icons/mobile/20/svg/star-one-half-fill-20.svg

<svg width="20" height="20" viewBox="0 0 20 20" fill="none" xmlns="http://www.w3.org/2000/svg">
<path d="M7.03605 15C6.82305 15 6.61105 14.93 6.43105 14.792C6.11505 14.549 5.98005 14.157 6.07905 13.768L6.83305 10.81C6.13005 10.422 5.46405 9.965 4.84905 9.448C4.65505 9.285 4.47405 9.122 4.30305 8.96C4.02005 8.691 3.92705 8.295 4.06105 7.925C4.19805 7.545 4.53205 7.293 4.93305 7.267L8.04805 7.065L9.08205 4.466C9.23505 4.082 9.58705 3.843 10.001 3.843C10.415 3.843 10.767 4.082 10.92 4.466L11.954 7.065L15.069 7.267C15.47 7.293 15.804 7.546 15.941 7.925C16.075 8.295 15.982 8.692 15.699 8.96C15.527 9.122 15.347 9.285 15.153 9.448C14.538 9.965 13.872 10.422 13.169 10.81L13.923 13.768C14.022 14.157 13.887 14.549 13.571 14.792C13.249 15.041 12.826 15.069 12.47 14.869C12.096 14.659 11.731 14.433 11.386 14.195C10.952 13.896 10.531 13.572 10.137 13.23C10.057 13.159 9.94605 13.159 9.86605 13.23C9.47205 13.572 9.05105 13.896 8.61705 14.195C8.27205 14.432 7.90705 14.659 7.53305 14.869C7.37605 14.957 7.20605 15.001 7.03705 15.001L7.03605 15Z" fill="black"/>
<path d="M10.0001 13.176C9.95207 13.176 9.90507 13.194 9.86407 13.229C9.47007 13.571 9.04907 13.895 8.61507 14.194C8.27007 14.431 7.90507 14.658 7.53107 14.868C7.37407 14.956 7.20407 15 7.03507 15C6.82207 15 6.61007 14.93 6.43007 14.792C6.11407 14.549 5.97907 14.157 6.07807 13.768L6.83207 10.81C6.12907 10.422 5.46307 9.965 4.84807 9.448C4.65407 9.285 4.47307 9.122 4.30207 8.96C4.01907 8.691 3.92607 8.295 4.06007 7.925C4.19707 7.545 4.53107 7.293 4.93207 7.267L8.04707 7.065L9.08107 4.466C9.23407 4.082 9.58607 3.843 10.0001 3.843V13.178V13.176Z" fill="black"/>
</svg>

<!-- This Source Code Form is subject to the terms of the Mozilla Public
   - License, v. 2.0. If a copy of the MPL was not distributed with this
   - file, You can obtain one at http://mozilla.org/MPL/2.0/. -->
<svg xmlns="http://www.w3.org/2000/svg" width="20" height="20" fill="none" viewBox="0 0 20 20">
    <path fill="#000" d="M7.036 15a1 1 0 0 1-.605-.208.97.97 0 0 1-.352-1.024l.754-2.958a12.4 12.4 0 0 1-2.53-1.85.96.96 0 0 1-.242-1.035.98.98 0 0 1 .872-.658l3.115-.202 1.034-2.599a.97.97 0 0 1 .919-.623c.414 0 .766.239.919.623l1.034 2.599 3.115.202a.985.985 0 0 1 .872.658.96.96 0 0 1-.242 1.035q-.257.243-.546.488c-.615.517-1.281.974-1.984 1.362l.754 2.958a.97.97 0 0 1-.352 1.024.99.99 0 0 1-1.101.077 14 14 0 0 1-2.333-1.639.2.2 0 0 0-.271 0 14.2 14.2 0 0 1-2.333 1.639 1 1 0 0 1-.496.132z" />
    <path fill="#000" d="M10 13.176a.2.2 0 0 0-.136.053 14.2 14.2 0 0 1-2.333 1.639.99.99 0 0 1-1.101-.076.97.97 0 0 1-.352-1.024l.754-2.958a12.4 12.4 0 0 1-2.53-1.85.96.96 0 0 1-.242-1.035.98.98 0 0 1 .872-.658l3.115-.202 1.034-2.599a.97.97 0 0 1 .92-.623v9.335z" />
</svg>
